icons/Suru/16x16/legacy/document-properties.svg

<?xml version="1.0" encoding="UTF-8" standalone="no"?>
<svg
   xmlns:osb="http://www.openswatchbook.org/uri/2009/osb"
   xmlns:dc="http://purl.org/dc/elements/1.1/"
   xmlns:cc="http://creativecommons.org/ns#"
   xmlns:rdf="http://www.w3.org/1999/02/22-rdf-syntax-ns#"
   xmlns:svg="http://www.w3.org/2000/svg"
   xmlns="http://www.w3.org/2000/svg"
   xmlns:sodipodi="http://sodipodi.sourceforge.net/DTD/sodipodi-0.dtd"
   xmlns:inkscape="http://www.inkscape.org/namespaces/inkscape"
   height="16"
   id="svg7384"
   version="1.1"
   width="16.01465"
   sodipodi:docname="document-properties.svg"
   inkscape:version="0.92.4 (5da689c313, 2019-01-14)">
  <sodipodi:namedview
     pagecolor="#ffffff"
     bordercolor="#666666"
     borderopacity="1"
     objecttolerance="10"
     gridtolerance="10"
     guidetolerance="10"
     inkscape:pageopacity="0"
     inkscape:pageshadow="2"
     inkscape:window-width="1920"
     inkscape:window-height="1011"
     id="namedview1020"
     showgrid="true"
     inkscape:zoom="45.254834"
     inkscape:cx="9.6771894"
     inkscape:cy="8.9635932"
     inkscape:window-x="0"
     inkscape:window-y="32"
     inkscape:window-maximized="1"
     inkscape:current-layer="svg7384"
     showborder="false"
     inkscape:snap-global="false">
    <inkscape:grid
       type="xygrid"
       id="grid1584" />
  </sodipodi:namedview>
  <metadata
     id="metadata20854">
    <rdf:RDF>
      <cc:Work
         rdf:about="">
        <dc:title />
        <dc:format>image/svg+xml</dc:format>
        <dc:type
           rdf:resource="http://purl.org/dc/dcmitype/StillImage" />
      </cc:Work>
    </rdf:RDF>
  </metadata>
  <defs
     id="defs7386">
    <linearGradient
       id="linearGradient5606"
       osb:paint="solid">
      <stop
         id="stop5608"
         offset="0"
         style="stop-color:#000000;stop-opacity:1;" />
    </linearGradient>
    <linearGradient
       id="linearGradient4526"
       osb:paint="solid">
      <stop
         id="stop4528"
         offset="0"
         style="stop-color:#ffffff;stop-opacity:1;" />
    </linearGradient>
    <linearGradient
       id="linearGradient3600-4"
       osb:paint="gradient">
      <stop
         id="stop3602-7"
         offset="0"
         style="stop-color:#f4f4f4;stop-opacity:1" />
      <stop
         id="stop3604-6"
         offset="1"
         style="stop-color:#dbdbdb;stop-opacity:1" />
    </linearGradient>
  </defs>
  <path
     style="color:#000000;font-style:normal;font-variant:normal;font-weight:normal;font-stretch:normal;font-size:medium;line-height:normal;font-family:sans-serif;font-variant-ligatures:normal;font-variant-position:normal;font-variant-caps:normal;font-variant-numeric:normal;font-variant-alternates:normal;font-feature-settings:normal;text-indent:0;text-align:start;text-decoration:none;text-decoration-line:none;text-decoration-style:solid;text-decoration-color:#000000;letter-spacing:normal;word-spacing:normal;text-transform:none;writing-mode:lr-tb;direction:ltr;text-orientation:mixed;dominant-baseline:auto;baseline-shift:baseline;text-anchor:start;white-space:normal;shape-padding:0;clip-rule:nonzero;display:inline;overflow:visible;visibility:visible;opacity:0.6;isolation:auto;mix-blend-mode:normal;color-interpolation:sRGB;color-interpolation-filters:linearRGB;solid-color:#000000;solid-opacity:1;vector-effect:none;fill:#000000;fill-opacity:1;fill-rule:nonzero;stroke:none;stroke-width:2;stroke-linecap:round;stroke-linejoin:round;stroke-miterlimit:4;stroke-dasharray:none;stroke-dashoffset:0;stroke-opacity:1;color-rendering:auto;image-rendering:auto;shape-rendering:auto;text-rendering:auto;enable-background:accumulate"
     d="m 6.8417969,0 c -0.5522619,5.5217905e-5 -0.9999448,0.44773812 -1,1 v 0.3535156 c -0.1424664,0.046214 -0.2826615,0.097085 -0.421875,0.1523438 l -0.21875,-0.265625 C 4.8437586,0.80863298 4.2015141,0.75489234 3.7773438,1.1210938 L 2.0234375,2.6347656 C 1.6114894,2.9903161 1.5594165,3.6099833 1.90625,4.0292969 L 2.0976562,4.2597656 C 2.0062178,4.4041214 1.918529,4.5505009 1.8378906,4.7011719 L 1.5605469,4.6523438 C 1.0123584,4.5545785 0.48989047,4.9233794 0.3984375,5.4726562 L 0.01367188,7.7773438 c -0.08976361,0.5401537 0.27153334,1.0520635 0.81054687,1.1484374 l 0.24804685,0.044922 c 0.014739,0.095902 0.032069,0.1919039 0.050781,0.2871094 l 0.056641,0.2773443 C 0.54077209,9.7012098 0.23517252,10.429798 0.56445312,11.001953 l 1.16601568,2.017578 c 0.2772041,0.479123 0.8908677,0.641949 1.3691406,0.363281 L 3.4257812,13.191406 C 3.5315594,13.284554 3.6387925,13.374344 3.75,13.460938 l -0.1445312,0.40039 c -0.1857732,0.518242 0.082233,1.089174 0.5996093,1.277344 L 6.375,15.925781 c 0.5210752,0.189255 1.0966708,-0.08146 1.2832031,-0.603515 l 0.1289063,-0.359375 c 0.1403128,0.0042 0.2795052,0.02577 0.4199218,0.02148 l 0.1269532,0.353516 c 0.1888064,0.526059 0.7721099,0.795276 1.2949218,0.597656 L 11.787109,15.121094 C 12.29777,14.928193 12.559414,14.361443 12.375,13.847656 l -0.113281,-0.30664 0.375044,-0.30273 0.257812,0.150391 c 0.483421,0.285147 1.106792,0.11674 1.38086,-0.373047 l 1.138671,-2.033203 c 0.264835,-0.474899 0.10176,-1.0743735 -0.367187,-1.3496095 l -0.21875,-0.1289063 c 0.03903,-0.1759468 0.07622,-0.352782 0.101563,-0.53125 6e-6,-0.00195 6e-6,-0.00391 0,-0.00586 l 0.24414,-0.042969 c 0.545305,-0.096187 0.908664,-0.6171483 0.810547,-1.1621093 L 15.570312,5.4609375 c -0.09809,-0.542812 -0.61716,-0.9037116 -1.160156,-0.8066406 l -0.25,0.044922 C 14.078312,4.5464379 13.993355,4.394346 13.900391,4.2480469 v -0.00195 L 14.089844,4.0175781 C 14.43905,3.5939793 14.381515,2.9680732 13.960938,2.6152344 L 12.1875,1.125 C 11.762419,0.76918352 11.129021,0.82700413 10.775391,1.2539062 L 10.572266,1.5019531 10.144531,1.3496094 V 1 C 10.144476,0.4477382 9.6967931,5.5328339e-5 9.1445312,0 Z M 7.8476562,5.0039062 C 9.5016215,4.9197706 10.910899,6.191792 10.996094,7.8457031 v 0.00195 C 11.080211,9.5023461 9.8070318,10.911938 8.1523438,10.996094 6.4976539,11.080211 5.0880624,9.8070317 5.0039062,8.1523438 4.9197891,6.497654 6.1929684,5.0880626 7.8476562,5.0039062 Z"
     id="path2172-5"
     inkscape:connector-curvature="0"
     sodipodi:nodetypes="ccccccccccccccccccccccccccccccccccccccccccccccccccccccccccccccc" />
  <path
     style="opacity:1;vector-effect:none;fill:#c8c4b7;fill-opacity:1;stroke:none;stroke-width:1.60000002;stroke-linecap:round;stroke-linejoin:round;stroke-miterlimit:4;stroke-dasharray:none;stroke-dashoffset:0;stroke-opacity:1"
     d="M 6.8417969 1 L 6.8417969 2.1191406 A 6 6 0 0 0 5.1386719 2.7324219 L 4.4316406 1.8789062 L 2.6777344 3.3925781 L 3.3554688 4.2128906 A 6 6 0 0 0 2.4160156 5.8203125 L 1.3847656 5.6367188 L 1 7.9414062 L 2.0078125 8.1230469 A 6 6 0 0 0 2.0078125 8.3046875 A 6 6 0 0 0 2.3359375 9.9707031 L 1.4316406 10.501953 L 1.4296875 10.501953 L 2.5957031 12.519531 L 3.5136719 11.980469 A 6 6 0 0 0 4.9238281 13.148438 L 4.546875 14.199219 L 6.7167969 14.986328 L 7.09375 13.931641 A 6 6 0 0 0 8.3046875 13.992188 A 6 6 0 0 0 8.890625 13.927734 L 9.2753906 15 L 11.433594 14.185547 L 11.064453 13.154297 A 6 6 0 0 0 12.478516 11.984375 L 13.402344 12.527344 L 14.541016 10.494141 L 13.660156 9.9765625 A 6 6 0 0 0 13.992188 8.1191406 L 15 7.9394531 L 14.585938 5.6386719 L 13.582031 5.8183594 A 6 6 0 0 0 12.638672 4.2050781 L 13.318359 3.3808594 L 11.544922 1.890625 L 10.851562 2.7285156 A 6 6 0 0 0 9.1445312 2.1171875 L 9.1445312 1 L 6.8417969 1 z M 8.1953125 4.0039062 A 4 4 0 0 1 11.994141 7.7949219 L 11.994141 7.796875 A 4 4 0 0 1 8.203125 11.994141 A 4 4 0 0 1 4.0058594 8.203125 A 4 4 0 0 1 7.7949219 4.0058594 A 4 4 0 0 1 8.1953125 4.0039062 z "
     id="path2172" />
  <g
     id="layer9"
     label="status"
     style="display:inline"
     transform="translate(-733.0002,-93)" />
  <g
     id="layer2"
     style="display:inline"
     transform="translate(-492,-460)" />
  <g
     id="layer4"
     style="display:inline"
     transform="translate(-492,-460)" />
  <g
     id="g1812"
     style="display:inline"
     transform="translate(-492,-460)" />
  <g
     id="g6217"
     style="display:inline"
     transform="translate(-492,-460)" />
  <g
     id="layer3"
     style="display:inline;stroke-width:1.13426304;fill:#c8c4b7;fill-opacity:1"
     transform="matrix(0.875,0,0,0.88830965,-429.51282,-407.73081)" />
  <g
     id="g1833"
     style="display:inline"
     transform="translate(-492,-460)" />
  <g
     id="layer1"
     style="display:inline"
     transform="translate(-492,-460)" />
  <g
     id="layer3-3"
     style="display:inline;fill:#808080;fill-opacity:1;stroke-width:1.13426304"
     transform="matrix(0.875,0,0,0.88830965,-409.57532,-404.29331)" />
</svg>

<?xml version="1.0" encoding="UTF-8" standalone="no"?>
<svg
   xmlns:osb="http://www.openswatchbook.org/uri/2009/osb"
   xmlns:dc="http://purl.org/dc/elements/1.1/"
   xmlns:cc="http://creativecommons.org/ns#"
   xmlns:rdf="http://www.w3.org/1999/02/22-rdf-syntax-ns#"
   xmlns:svg="http://www.w3.org/2000/svg"
   xmlns="http://www.w3.org/2000/svg"
   xmlns:sodipodi="http://sodipodi.sourceforge.net/DTD/sodipodi-0.dtd"
   xmlns:inkscape="http://www.inkscape.org/namespaces/inkscape"
   height="16"
   id="svg7384"
   version="1.1"
   width="16.01465"
   sodipodi:docname="document-properties.svg"
   inkscape:version="0.92.4 (5da689c313, 2019-01-14)">
  <sodipodi:namedview
     pagecolor="#ffffff"
     bordercolor="#666666"
     borderopacity="1"
     objecttolerance="10"
     gridtolerance="10"
     guidetolerance="10"
     inkscape:pageopacity="0"
     inkscape:pageshadow="2"
     inkscape:window-width="1294"
     inkscape:window-height="704"
     id="namedview1020"
     showgrid="false"
     inkscape:zoom="1"
     inkscape:cx="10.120343"
     inkscape:cy="8"
     inkscape:window-x="72"
     inkscape:window-y="27"
     inkscape:window-maximized="1"
     inkscape:current-layer="svg7384"
     showborder="false">
    <inkscape:grid
       type="xygrid"
       id="grid1584" />
  </sodipodi:namedview>
  <metadata
     id="metadata20854">
    <rdf:RDF>
      <cc:Work
         rdf:about="">
        <dc:title></dc:title>
        <dc:format>image/svg+xml</dc:format>
        <dc:type
           rdf:resource="http://purl.org/dc/dcmitype/StillImage" />
      </cc:Work>
    </rdf:RDF>
  </metadata>
  <defs
     id="defs7386">
    <linearGradient
       id="linearGradient5606"
       osb:paint="solid">
      <stop
         id="stop5608"
         offset="0"
         style="stop-color:#000000;stop-opacity:1;" />
    </linearGradient>
    <linearGradient
       id="linearGradient4526"
       osb:paint="solid">
      <stop
         id="stop4528"
         offset="0"
         style="stop-color:#ffffff;stop-opacity:1;" />
    </linearGradient>
    <linearGradient
       id="linearGradient3600-4"
       osb:paint="gradient">
      <stop
         id="stop3602-7"
         offset="0"
         style="stop-color:#f4f4f4;stop-opacity:1" />
      <stop
         id="stop3604-6"
         offset="1"
         style="stop-color:#dbdbdb;stop-opacity:1" />
    </linearGradient>
  </defs>
  <path
     style="color:#000000;font-style:normal;font-variant:normal;font-weight:normal;font-stretch:normal;font-size:medium;line-height:normal;font-family:sans-serif;font-variant-ligatures:normal;font-variant-position:normal;font-variant-caps:normal;font-variant-numeric:normal;font-variant-alternates:normal;font-feature-settings:normal;text-indent:0;text-align:start;text-decoration:none;text-decoration-line:none;text-decoration-style:solid;text-decoration-color:#000000;letter-spacing:normal;word-spacing:normal;text-transform:none;writing-mode:lr-tb;direction:ltr;text-orientation:mixed;dominant-baseline:auto;baseline-shift:baseline;text-anchor:start;white-space:normal;shape-padding:0;clip-rule:nonzero;display:inline;overflow:visible;visibility:visible;opacity:0.6;isolation:auto;mix-blend-mode:normal;color-interpolation:sRGB;color-interpolation-filters:linearRGB;solid-color:#000000;solid-opacity:1;vector-effect:none;fill:#000000;fill-opacity:1;fill-rule:nonzero;stroke:none;stroke-width:2;stroke-linecap:round;stroke-linejoin:round;stroke-miterlimit:4;stroke-dasharray:none;stroke-dashoffset:0;stroke-opacity:1;color-rendering:auto;image-rendering:auto;shape-rendering:auto;text-rendering:auto;enable-background:accumulate"
     d="M 6.8417969 0 C 6.289535 5.5217905e-05 5.8418521 0.44773812 5.8417969 1 L 5.8417969 1.3535156 C 5.6993305 1.3997296 5.5591354 1.4506006 5.4199219 1.5058594 L 5.2011719 1.2402344 C 4.8437586 0.80863298 4.2015141 0.75489234 3.7773438 1.1210938 L 2.0234375 2.6347656 C 1.6114894 2.9903161 1.5594165 3.6099833 1.90625 4.0292969 L 2.0976562 4.2597656 C 2.0062178 4.4041214 1.918529 4.5505009 1.8378906 4.7011719 L 1.5605469 4.6523438 C 1.0123584 4.5545785 0.48989047 4.9233794 0.3984375 5.4726562 L 0.013671875 7.7773438 C -0.076091735 8.3174975 0.28520522 8.8294073 0.82421875 8.9257812 L 1.0722656 8.9707031 C 1.0870046 9.0666051 1.1043349 9.162607 1.1230469 9.2578125 C 1.1369899 9.3378285 1.155158 9.4166198 1.171875 9.4960938 L 1.1601562 9.5019531 L 1.1738281 9.5019531 C 1.1761581 9.5129631 1.1773075 9.5241572 1.1796875 9.5351562 C 0.54077209 9.7012098 0.23517252 10.429798 0.56445312 11.001953 L 1.7304688 13.019531 C 2.0076729 13.498654 2.6213365 13.66148 3.0996094 13.382812 L 3.4257812 13.191406 C 3.5315594 13.284554 3.6387925 13.374344 3.75 13.460938 L 3.6054688 13.861328 C 3.4196956 14.37957 3.6877018 14.950502 4.2050781 15.138672 L 6.375 15.925781 C 6.8960752 16.115036 7.4716708 15.844321 7.6582031 15.322266 L 7.7871094 14.962891 C 7.9274222 14.967091 8.0666146 14.988665 8.2070312 14.984375 L 8.3339844 15.337891 C 8.5227908 15.86395 9.1060943 16.133167 9.6289062 15.935547 L 11.787109 15.121094 C 12.29777 14.928193 12.559414 14.361443 12.375 13.847656 L 12.28125 13.587891 L 11.599609 14 C 11.774809 13.894841 11.944052 13.780225 12.109375 13.660156 L 12.115234 13.65625 C 12.149224 13.63416 12.181831 13.610034 12.212891 13.583984 C 12.223551 13.574884 12.233541 13.565781 12.244141 13.556641 C 12.378797 13.454975 12.509756 13.349411 12.636719 13.238281 L 12.894531 13.388672 C 13.377952 13.673819 14.001323 13.505412 14.275391 13.015625 L 15.414062 10.982422 C 15.678897 10.507523 15.515822 9.9080485 15.046875 9.6328125 L 14.828125 9.5039062 C 14.867155 9.3279594 14.904345 9.1511242 14.929688 8.9726562 C 14.929694 8.9707062 14.929694 8.9687469 14.929688 8.9667969 L 15.173828 8.9238281 C 15.719133 8.8276411 16.082492 8.3066798 15.984375 7.7617188 L 15.570312 5.4609375 C 15.472223 4.9181255 14.953152 4.5572259 14.410156 4.6542969 L 14.160156 4.6992188 C 14.078312 4.5464379 13.993355 4.394346 13.900391 4.2480469 L 13.900391 4.2460938 L 14.089844 4.0175781 C 14.43905 3.5939793 14.381515 2.9680732 13.960938 2.6152344 L 12.1875 1.125 C 11.762419 0.76918352 11.129021 0.82700413 10.775391 1.2539062 L 10.587891 1.4785156 L 11.294922 1.8320312 C 11.099634 1.727919 10.899593 1.6320324 10.695312 1.546875 C 10.515198 1.4719479 10.330243 1.4092275 10.144531 1.3496094 L 10.144531 1 C 10.144476 0.4477382 9.6967931 5.5328339e-05 9.1445312 0 L 6.8417969 0 z M 7.8476562 5.0039062 A 3 3 0 0 1 10.996094 7.8457031 L 10.996094 7.8476562 A 3 3 0 0 1 8.1523438 10.996094 A 3 3 0 0 1 5.0039062 8.1523438 A 3 3 0 0 1 7.8476562 5.0039062 z "
     id="path2172-5" />
  <path
     style="opacity:1;vector-effect:none;fill:#c8c4b7;fill-opacity:1;stroke:none;stroke-width:1.60000002;stroke-linecap:round;stroke-linejoin:round;stroke-miterlimit:4;stroke-dasharray:none;stroke-dashoffset:0;stroke-opacity:1"
     d="M 6.8417969 1 L 6.8417969 2.1191406 A 6 6 0 0 0 5.1386719 2.7324219 L 4.4316406 1.8789062 L 2.6777344 3.3925781 L 3.3554688 4.2128906 A 6 6 0 0 0 2.4160156 5.8203125 L 1.3847656 5.6367188 L 1 7.9414062 L 2.0078125 8.1230469 A 6 6 0 0 0 2.0078125 8.3046875 A 6 6 0 0 0 2.3359375 9.9707031 L 1.4316406 10.501953 L 1.4296875 10.501953 L 2.5957031 12.519531 L 3.5136719 11.980469 A 6 6 0 0 0 4.9238281 13.148438 L 4.546875 14.199219 L 6.7167969 14.986328 L 7.09375 13.931641 A 6 6 0 0 0 8.3046875 13.992188 A 6 6 0 0 0 8.890625 13.927734 L 9.2753906 15 L 11.433594 14.185547 L 11.064453 13.154297 A 6 6 0 0 0 12.478516 11.984375 L 13.402344 12.527344 L 14.541016 10.494141 L 13.660156 9.9765625 A 6 6 0 0 0 13.992188 8.1191406 L 15 7.9394531 L 14.585938 5.6386719 L 13.582031 5.8183594 A 6 6 0 0 0 12.638672 4.2050781 L 13.318359 3.3808594 L 11.544922 1.890625 L 10.851562 2.7285156 A 6 6 0 0 0 9.1445312 2.1171875 L 9.1445312 1 L 6.8417969 1 z M 8.1953125 4.0039062 A 4 4 0 0 1 11.994141 7.7949219 L 11.994141 7.796875 A 4 4 0 0 1 8.203125 11.994141 A 4 4 0 0 1 4.0058594 8.203125 A 4 4 0 0 1 7.7949219 4.0058594 A 4 4 0 0 1 8.1953125 4.0039062 z "
     id="path2172" />
  <g
     id="layer9"
     label="status"
     style="display:inline"
     transform="translate(-733.0002,-93)" />
  <g
     id="layer2"
     style="display:inline"
     transform="translate(-492,-460)" />
  <g
     id="layer4"
     style="display:inline"
     transform="translate(-492,-460)" />
  <g
     id="g1812"
     style="display:inline"
     transform="translate(-492,-460)" />
  <g
     id="g6217"
     style="display:inline"
     transform="translate(-492,-460)" />
  <g
     id="layer3"
     style="display:inline;stroke-width:1.13426304;fill:#c8c4b7;fill-opacity:1"
     transform="matrix(0.875,0,0,0.88830965,-429.51282,-407.73081)" />
  <g
     id="g1833"
     style="display:inline"
     transform="translate(-492,-460)" />
  <g
     id="layer1"
     style="display:inline"
     transform="translate(-492,-460)" />
  <g
     id="layer3-3"
     style="display:inline;fill:#808080;fill-opacity:1;stroke-width:1.13426304"
     transform="matrix(0.875,0,0,0.88830965,-409.57532,-404.29331)" />
</svg>
